X:212
T:Speed the Plough
R:reel
D:Molloy, Peoples, Brady
D:Paul McGrattan: The Frost Is All Over
Z:id:hn-reel-212
M:C|
K:D
d3A BAFB|AF~F2 EFDE|F2AF G2BG|ABde fgfe|
d2dA BAFB|AF~F2 EFDE|F2AF G2BG|1 ABde fddc:|2 ABde fdde||
|:fa~a2 afdf|gefd edBd|faab afdB|ABde feeg|
faaf afdf|gefd edBA|F2AF G2BG|1 ABde fdde:|2 ABde fgfe||
P:Variations:
|:dedA BAFB|AF~F2 EFDE|F2AF ~G3B|ABde fdef|
dA~A2 BAFB|AF~F2 EFDE|F2AF GABG|1 ABde fgfe:|2 ABde fdde||
|:faaf afdf|gefd edBd|faaf ~a3f|ABde fe~e2|
faab afdf|gefd edBA|F2AF G2BG|1 ABde fdde:|2 ABde fdef||

